X: 26280
T: Melted Kettle, The
R: reel
M: 4/4
K: Dmajor
fAAA f2 ef|dBBB GBBG|fAAA f2 ef|afdf g2 fe|
fAAA f2 ef|dBBB GBBG|fAAA f2 ef|afdf e4:|
deed e2 de|fddd d2 fd|gddd d2 gd|fddd d2 fd|
deed e2 de|fddd d2 fd|gddd d2 gd|addd d2 af|
deed e2 de|fddd d2 fd|gddd d2 gd|fddd d2 fd|
deed e2 de|fddd d2 fd|gddg ddgd|adda ddaa||

